X:1
T:Egan's (The Kerry)
L:1/8
Q:1/4=110
M:2/4
K:D
"D" z4 |"D"z4 |"G" z4 |"A" z4 |
"D" z4 |"D" z4 |"G" z4"A" |"D" z4 ::
"D" z4 |"Em" z4 |"G" z4 |"A" z4 |
"D" D,,3 z |"Em" E,,3 z |"G" G,,3"Em" z |"A"A,,2"D" D,,2 ::
"D" .D,, z z2 |"D" .D,, z z2 |"G" G,,2 E,,2 |"A" A,,2 C,2 |
"D" .D, z z2 |"D" .D,, z z2 |"G" G,,2"A" A,,2 |"D"D,4 ::
"D" .D,, z z2 |"Em" .E,, z z2 |"G" .G,, z z2 |"A" .A,, z z2 |
"D" .D,, z z2 |"Em" .E,, z z2 |"G" .G,, z"Em" z2 |"A".A,,2"D" .D,,2 ::
